X:1
T:Ease Away Walk
C:1983 - Benny Golson
Z:www.realbook.site
L:1/8
M:4/4
I:linebreak $
K:Cmin
V:1 treble nm=" " snm=" "
V:1
|:"Cm" z2 z G/^F/"Am7b5" G2 CE |"D7#9" z =F-"G7#9" F6 |"Cm" z2 z G/^F/"Am7b5" G2 C=F | %3
"D7#9" z E-"G7#9" E6 |$"Cm" z2 z G/^F/"Am7b5" G2 CE- |"D7#9" E G2"G7#9" B- B4- |"Cm" B8"Am7b5" | %7
"D7#9" G z"G7#9" z2 z4 |] %8

